X: 56
T: FORSHAM'S
%R: strathspey
B: Jean White "100 Popular Hornpipes, Reels, Jigs and Country Dances", Boston 1880 p.25
F: http://www.loc.gov/resource/sm1880.09124.0#seq-1
Z: 2014 John Chambers <jc:trillian.mit.edu>
M: C|
L: 1/16
K: Dm
% - - - - - - - - - - - - - - - - - - - - - - - - - - - - -
A2 |\
F3AD3A FA3 DEF2 | G3CE3G C3G EFG2 |\
A3DF3A F3A D3g | f3d e2d^c dD3D2 :|
f2 |\
a3df3a d3af3a | g3ce3g c3g e2fg |\
a3df3a d3af3a | g3a g2fe fd3 d2fg |
a3df3a d3af3a | g3ce3g c3g e2fg |\
a3fg3e f3de3^c | d2^cB AGFE AD3D2 H|]
% - - - - - - - - - - - - - - - - - - - - - - - - - - - - -

%%sep 1 1 500
%%sep 1 1 500
